austria/municipalities/70727.svg

<svg height="550" width="500" xmlns="http://www.w3.org/2000/svg" xmlns:xlink="http://www.w3.org/1999/xlink"><clipPath id="a"><path d="m5 5h490v295a245 245 0 0 1 -490 0z"/></clipPath><path d="m5 5h490v295a245 245 0 0 1 -490 0z" fill="#fff"/><path clip-path="url(#a)" d="m5 5 490 490v-490l-490 490z" fill="#185c2b" stroke="#000"/><path id="b" d="m250 36-23 23v42.46875l-34.46875-34.46875h-32.53125v32.53125l67 67v60.46875l23 23 23-23v-60.46875l67-67v-32.53125h-32.53125l-34.46875 34.46875v-42.46875z" fill="#185c2b" stroke="#000"/><use transform="matrix(1 0 0 -1 0 500)" xlink:href="#b"/><path id="c" d="m464 250-23-23h-42.46875l34.46875-34.46875v-32.53125h-32.53125l-67 67h-60.46875l-23 23 23 23h60.46875l67 67h32.53125v-32.53125l-34.46875-34.46875h42.46875z" fill="#fff" stroke="#000"/><use transform="matrix(-1 0 0 1 500 0)" xlink:href="#c"/><path d="m5 5h490v295a245 245 0 0 1 -490 0z" fill="none" stroke="#000" stroke-width="10"/></svg>

<svg height="550" width="500" xmlns="http://www.w3.org/2000/svg" xmlns:xlink="http://www.w3.org/1999/xlink"><clipPath id="a"><path d="M5 5h490v295a245 245 0 0 1-490 0z"/></clipPath><path d="M5 5h490v295a245 245 0 0 1-490 0z" fill="#fff"/><path clip-path="url(#a)" d="m5 5 490 490V5L5 495z" fill="#185c2b" stroke="#000"/><path id="b" d="m250 36-23 23v42.469L192.531 67H160v32.531l67 67V227l23 23 23-23v-60.469l67-67V67h-32.531L273 101.469V59z" fill="#185c2b" stroke="#000"/><use transform="matrix(1 0 0 -1 0 500)" xlink:href="#b"/><path id="c" d="m464 250-23-23h-42.469L433 192.531V160h-32.531l-67 67H273l-23 23 23 23h60.469l67 67H433v-32.531L398.531 273H441z" fill="#fff" stroke="#000"/><use transform="matrix(-1 0 0 1 500 0)" xlink:href="#c"/><path d="M5 5h490v295a245 245 0 0 1-490 0z" fill="none" stroke="#000" stroke-width="10"/></svg>
